X: 21484
M: 6/8
L: 1/8
K: D
f2e d2c | d2A A2A | B2c d2e | d2A A2A |\
f2e d2c | d2A A2A | B2c d2e | cBc d2 |]


